X:1
T: Bill Black's Hornpipe
C:
R:Reel
Q:232
K:G
M:4/4
L:1/8
|:dc|BG Bd gd BG|Ac ag fe dc|BG Bd gd cB|((3ABA) ((3GFE) D2dc|
BG Bd gd BG|Ac ag fe dc|((3BdB) GB ((3AcA) FA|G2GF G2:|
|:Bc|dc BA GBd=f|e2c2 c3d|ed cB A^c eg|f2d2 d2ef|
g1/2g1/2g ge f1/2f1/2f fd|ec ge dc BA|((3BdB) GB ((3AcA) FA|G2GF G2:|
